X: 111a
T: Denis Murphy's slide
M: 12/8
L: 1/8
R: slide
K:Dmaj
"D"A2D FED F2A A2f|"G"g2e "D"f2d "A"e2d "G"Bcd|
"D"A2D FED F2A A2f|a2f "A"efe "D"d3 dcB:|
|: "D"d2e ~f3 "G"gfe "D"~f3|"G"gfe "D"fed "A"e2d "G"B2A|
"D"d2e f3 "G"gfe "D"f2f|a2f "A"efe "D"d3 d3:|


